; generated by Slic3r 1.2.9 on 2016-08-16 at 16:39:41

; external perimeters extrusion width = 0.50mm
; perimeters extrusion width = 0.50mm
; infill extrusion width = 0.50mm
; solid infill extrusion width = 0.50mm
; top infill extrusion width = 0.50mm

M107
;Basic settings: Layer height: {layer_height} Walls: {wall_thickness} Fill: {fill_density}
;Print time: {print_time}
;Filament used: {filament_amount}m {filament_weight}g
;Filament cost: {filament_cost}
;M190 S{print_bed_temperature} ;Uncomment to add your own bed temperature line
;M109 S{print_temperature} ;Uncomment to add your own temperature line
G21        ;metric values
G90        ;absolute positioning
M83
G10 P0 S200
T0
M116


G21 ; set units to millimeters
G90 ; use absolute coordinates
M83 ; use relative distances for extrusion
G1 E-3.20000 F3000.00000
G1 Z0.400 F9000.000
G1 X0.000 Y20.186 F9000.000
G1 Z0.300 F9000.000
G1 E3.20000 F3000.00000
G1 X-33.450 Y20.186 E3.06905 F1200.000
G1 X-35.121 Y19.791 E0.15755
G1 X-36.439 Y18.690 E0.15755
G1 X-37.186 Y16.450 E0.21667
G1 X-37.186 Y-16.450 E3.01859
G1 X-36.791 Y-18.121 E0.15755
G1 X-35.690 Y-19.439 E0.15755
G1 X-33.450 Y-20.186 E0.21667
G1 X33.450 Y-20.186 E6.13811
G1 X35.121 Y-19.791 E0.15755
G1 X36.439 Y-18.690 E0.15755 F1200.000
G1 X37.186 Y-16.450 E0.21667
G1 X37.186 Y16.450 E3.01859
G1 X36.791 Y18.121 E0.15755
G1 X35.690 Y19.439 E0.15755
G1 X33.450 Y20.186 E0.21667
G1 X0.060 Y20.186 E3.06355
G1 E-3.20000 F3000.00000
G1 Z0.700 F9000.000
G1 X-3.502 Y11.707 F9000.000
G1 Z0.300 F9000.000
G1 E3.20000 F3000.00000
G1 X-3.242 Y11.234 E0.04953 F900.000
G1 X-2.873 Y10.841 E0.04953
G1 X-2.416 Y10.551 E0.04966
G1 X-1.889 Y10.384 E0.05066
G1 X-1.365 Y10.351 E0.04823 F900.000
G1 X-0.835 Y10.452 E0.04953
G1 X-0.346 Y10.682 E0.04953
G1 X0.070 Y11.026 E0.04953
G1 X0.387 Y11.463 E0.04953
G1 X0.586 Y11.964 E0.04953
G1 X0.654 Y12.500 E0.04953
G1 X0.586 Y13.036 E0.04953
G1 X0.387 Y13.537 E0.04953
G1 X0.070 Y13.974 E0.04953
G1 X-0.346 Y14.318 E0.04953
G1 X-0.835 Y14.548 E0.04953
G1 X-1.365 Y14.649 E0.04953
G1 X-1.904 Y14.615 E0.04953
G1 X-2.417 Y14.449 E0.04953
G1 X-2.873 Y14.159 E0.04953
G1 X-3.242 Y13.766 E0.04953
G1 X-3.502 Y13.293 E0.04953
G1 X-3.637 Y12.769 E0.04966
G1 X-3.633 Y12.216 E0.05066
G1 X-3.517 Y11.765 E0.04273
G1 X-3.737 Y11.384 F9000.000
G1 X3.521 Y-9.909 F9000.000
G1 X3.083 Y-10.051 E0.04228 F900.000
G1 X2.627 Y-10.341 E0.04953
G1 X2.258 Y-10.734 E0.04953
G1 X1.998 Y-11.207 E0.04953
G1 X1.863 Y-11.730 E0.04953
G1 X1.863 Y-12.270 E0.04953
G1 X1.991 Y-12.769 E0.04726
G1 X2.256 Y-13.264 E0.05151
G1 X2.627 Y-13.659 E0.04975
G1 X3.083 Y-13.949 E0.04953
G1 X3.596 Y-14.115 E0.04953
G1 X4.111 Y-14.148 E0.04726 F900.000
G1 X4.663 Y-14.049 E0.05151
G1 X5.154 Y-13.818 E0.04975
G1 X5.570 Y-13.474 E0.04953
G1 X5.887 Y-13.037 E0.04953
G1 X6.086 Y-12.536 E0.04953
G1 X6.154 Y-12.000 E0.04953
G1 X6.086 Y-11.464 E0.04953
G1 X5.896 Y-10.986 E0.04726
G1 X5.572 Y-10.527 E0.05151
G1 X5.154 Y-10.182 E0.04975
G1 X4.665 Y-9.952 E0.04953
G1 X4.135 Y-9.851 E0.04953
G1 X3.578 Y-9.890 E0.05122
G1 X3.244 Y-9.620 F9000.000
G1 X-8.182 Y-11.387 F9000.000
G1 X-8.196 Y-11.280 E0.00993 F900.000
G1 X-8.463 Y-10.605 E0.06658
G1 X-8.890 Y-10.018 E0.06658
G1 X-9.449 Y-9.556 E0.06658
G1 X-10.105 Y-9.247 E0.06658
G1 X-10.818 Y-9.111 E0.06658
G1 X-11.542 Y-9.156 E0.06658
G1 X-12.205 Y-9.371 E0.06390
G1 X-12.841 Y-9.764 E0.06857
G1 X-13.342 Y-10.298 E0.06722
G1 X-13.678 Y-10.909 E0.06390
G1 X-13.872 Y-11.630 E0.06857
G1 X-13.872 Y-12.363 E0.06722
G1 X-13.692 Y-13.066 E0.06658
G1 X-13.342 Y-13.702 E0.06658
G1 X-12.845 Y-14.231 E0.06658
G1 X-12.233 Y-14.620 E0.06658
G1 X-11.542 Y-14.844 E0.06658
G1 X-10.857 Y-14.887 E0.06299
G1 X-10.112 Y-14.756 E0.06945 F900.000
G1 X-9.449 Y-14.444 E0.06722
G1 X-8.890 Y-13.982 E0.06658
G1 X-8.463 Y-13.395 E0.06658
G1 X-8.196 Y-12.720 E0.06658
G1 X-8.105 Y-12.000 E0.06658
G1 X-8.175 Y-11.447 E0.05114
G1 X-8.912 Y-11.480 F9000.000
G1 X-9.113 Y-10.963 E0.05089 F900.000
G1 X-9.430 Y-10.526 E0.04953
G1 X-9.846 Y-10.182 E0.04953
G1 X-10.335 Y-9.952 E0.04953
G1 X-10.865 Y-9.851 E0.04953
G1 X-11.404 Y-9.885 E0.04953
G1 X-11.893 Y-10.044 E0.04726
G1 X-12.371 Y-10.339 E0.05151
G1 X-12.742 Y-10.734 E0.04975
G1 X-12.990 Y-11.186 E0.04726
G1 X-13.137 Y-11.728 E0.05151
G1 X-13.137 Y-12.270 E0.04975
G1 X-13.002 Y-12.793 E0.04953
G1 X-12.742 Y-13.266 E0.04953
G1 X-12.373 Y-13.659 E0.04953
G1 X-11.917 Y-13.949 E0.04953
G1 X-11.404 Y-14.115 E0.04953
G1 X-10.889 Y-14.148 E0.04726 F900.000
G1 X-10.337 Y-14.049 E0.05151
G1 X-9.846 Y-13.818 E0.04975
G1 X-9.430 Y-13.474 E0.04953
G1 X-9.113 Y-13.037 E0.04953
G1 X-8.914 Y-12.536 E0.04953
G1 X-8.846 Y-12.000 E0.04953
G1 X-8.905 Y-11.539 E0.04262
G1 X-8.637 Y-11.189 F9000.000
G1 E-3.20000 F3000.00000
G1 Z0.700 F9000.000
G1 X-17.929 Y10.301 F9000.000
G1 Z0.300 F9000.000
G1 E3.20000 F3000.00000
G1 X-17.929 Y9.968 E0.03056 F900.000
G1 X-17.616 Y10.056 E0.02984
G1 X-16.520 Y10.233 E0.10192
G1 X-15.446 Y10.287 E0.09867
G1 X-14.354 Y10.220 E0.10035
G1 X-13.277 Y10.032 E0.10035
G1 X-12.227 Y9.724 E0.10035
G1 X-11.218 Y9.301 E0.10035
G1 X-10.263 Y8.769 E0.10035
G1 X-9.373 Y8.133 E0.10035
G1 X-8.574 Y7.414 E0.09867
G1 X-7.834 Y6.585 E0.10192
G1 X-7.202 Y5.691 E0.10045
G1 X-6.675 Y4.733 E0.10035
G1 X-6.258 Y3.722 E0.10035
G1 X-5.956 Y2.670 E0.10035
G1 X-5.756 Y1.485 E0.11030
G1 X-5.713 Y0.492 E0.09115
G1 X-5.774 Y-0.596 E0.10001
G1 X-5.958 Y-1.678 E0.10070
G1 X-6.262 Y-2.733 E0.10070
G1 X-6.682 Y-3.747 E0.10070
G1 X-7.213 Y-4.707 E0.10070
G1 X-7.848 Y-5.602 E0.10070
G1 X-8.579 Y-6.421 E0.10070
G1 X-9.398 Y-7.152 E0.10070
G1 X-10.294 Y-7.788 E0.10081
G1 X-11.270 Y-8.325 E0.10228
G1 X-12.267 Y-8.738 E0.09902
G1 X-13.322 Y-9.042 E0.10070
G1 X-14.404 Y-9.226 E0.10070
G1 X-15.500 Y-9.287 E0.10070
G1 X-16.596 Y-9.226 E0.10070
G1 X-17.678 Y-9.042 E0.10070
G1 X-18.733 Y-8.738 E0.10070
G1 X-19.747 Y-8.318 E0.10070
G1 X-20.707 Y-7.787 E0.10070
G1 X-21.602 Y-7.152 E0.10070
G1 X-22.421 Y-6.421 E0.10070
G1 X-23.152 Y-5.602 E0.10070
G1 X-23.787 Y-4.707 E0.10070
G1 X-24.318 Y-3.747 E0.10070
G1 X-24.738 Y-2.733 E0.10070
G1 X-25.042 Y-1.678 E0.10070
G1 X-25.211 Y-0.686 E0.09235
G1 X-32.314 Y-0.686 E0.65177
G1 X-32.314 Y-15.314 E1.34220
G1 X32.314 Y-15.314 E5.92972
G1 X32.314 Y-0.686 E1.34220
G1 X27.222 Y-0.686 E0.46727
G1 X26.924 Y-2.056 E0.12870
G1 X26.549 Y-3.250 E0.11474
G1 X26.069 Y-4.404 E0.11474
G1 X25.487 Y-5.511 E0.11474
G1 X24.807 Y-6.562 E0.11481
G1 X24.023 Y-7.560 E0.11651
G1 X23.180 Y-8.457 E0.11288
G1 X22.245 Y-9.287 E0.11474
G1 X21.239 Y-10.030 E0.11474
G1 X20.171 Y-10.680 E0.11474
G1 X19.048 Y-11.230 E0.11474
G1 X17.880 Y-11.678 E0.11474
G1 X16.677 Y-12.018 E0.11474
G1 X15.448 Y-12.249 E0.11474
G1 X14.203 Y-12.369 E0.11474
G1 X12.973 Y-12.376 E0.11288
G1 X11.708 Y-12.271 E0.11651
G1 X10.475 Y-12.053 E0.11481
G1 X9.268 Y-11.726 E0.11474
G1 X8.094 Y-11.291 E0.11491
G1 X6.508 Y-10.532 E0.16135
G1 X6.804 Y-11.280 E0.07385
G1 X6.895 Y-12.000 E0.06658
G1 X6.804 Y-12.720 E0.06658
G1 X6.537 Y-13.395 E0.06658
G1 X6.110 Y-13.982 E0.06658
G1 X5.551 Y-14.444 E0.06658
G1 X4.888 Y-14.756 E0.06722
G1 X4.143 Y-14.889 E0.06950
G1 X3.458 Y-14.844 E0.06300
G1 X2.767 Y-14.620 E0.06658
G1 X2.155 Y-14.231 E0.06658
G1 X1.653 Y-13.697 E0.06722
G1 X1.301 Y-13.037 E0.06857
G1 X1.128 Y-12.363 E0.06390
G1 X1.128 Y-11.637 E0.06658
G1 X1.308 Y-10.934 E0.06658
G1 X1.658 Y-10.298 E0.06658
G1 X2.155 Y-9.769 E0.06658
G1 X2.767 Y-9.380 E0.06658
G1 X3.458 Y-9.156 E0.06658
G1 X4.538 Y-9.088 E0.09930
G1 X3.934 Y-8.567 E0.07319
G1 X3.066 Y-7.664 E0.11495
G1 X2.284 Y-6.688 E0.11474
G1 X1.593 Y-5.646 E0.11474
G1 X0.998 Y-4.545 E0.11474
G1 X0.505 Y-3.396 E0.11474
G1 X0.117 Y-2.207 E0.11474
G1 X-0.162 Y-0.988 E0.11474
G1 X-0.331 Y0.251 E0.11474
G1 X-0.387 Y1.500 E0.11474
G1 X-0.331 Y2.749 E0.11474
G1 X-0.162 Y3.988 E0.11474
G1 X0.117 Y5.207 E0.11474
G1 X0.505 Y6.396 E0.11474
G1 X0.998 Y7.545 E0.11474
G1 X1.583 Y8.628 E0.11288
G1 X2.283 Y9.687 E0.11651
G1 X3.066 Y10.664 E0.11481
G1 X3.932 Y11.565 E0.11474
G1 X4.877 Y12.385 E0.11474
G1 X5.892 Y13.117 E0.11481
G1 X6.985 Y13.763 E0.11651
G1 X8.096 Y14.292 E0.11288
G1 X9.268 Y14.726 E0.11474
G1 X10.024 Y14.931 E0.07188
G1 X9.973 Y15.314 E0.03546
G1 X-0.396 Y15.314 E0.95140
G1 X0.610 Y14.482 E0.11984
G1 X1.037 Y13.895 E0.06658
G1 X1.304 Y13.220 E0.06658
G1 X1.395 Y12.500 E0.06658
G1 X1.304 Y11.780 E0.06658
G1 X1.037 Y11.105 E0.06658
G1 X0.610 Y10.518 E0.06658
G1 X0.051 Y10.056 E0.06658
G1 X-0.605 Y9.747 E0.06658
G1 X-1.318 Y9.611 E0.06658
G1 X-2.026 Y9.655 E0.06505
G1 X-2.729 Y9.878 E0.06771
G1 X-3.345 Y10.269 E0.06695
G1 X-3.842 Y10.798 E0.06658
G1 X-4.192 Y11.434 E0.06658
G1 X-4.368 Y12.121 E0.06505
G1 X-4.373 Y12.859 E0.06771
G1 X-4.192 Y13.566 E0.06695
G1 X-3.842 Y14.202 E0.06658
G1 X-3.345 Y14.731 E0.06658
G1 X-2.927 Y14.996 E0.04546
G1 X-3.019 Y15.314 E0.03041
G1 X-32.314 Y15.314 E2.68782
G1 X-32.314 Y3.686 E1.06694
G1 X-24.765 Y3.686 E0.69269
G1 X-24.277 Y4.830 E0.11415
G1 X-23.739 Y5.783 E0.10035
G1 X-23.098 Y6.670 E0.10045
G1 X-22.349 Y7.490 E0.10192
G1 X-21.542 Y8.200 E0.09867
G1 X-20.645 Y8.826 E0.10035
G1 X-17.982 Y10.272 E0.27800
G1 E-3.20000 F3000.00000
G1 Z0.700 F9000.000
G1 X16.977 Y14.934 F9000.000
G1 Z0.300 F9000.000
G1 E3.20000 F3000.00000
G1 X17.880 Y14.678 E0.08618 F900.000
G1 X19.048 Y14.230 E0.11474
G1 X20.171 Y13.680 E0.11474
G1 X21.239 Y13.030 E0.11474
G1 X22.245 Y12.287 E0.11474
G1 X23.165 Y11.470 E0.11288
G1 X24.037 Y10.546 E0.11659
G1 X24.819 Y9.544 E0.11659
G1 X25.487 Y8.511 E0.11288
G1 X26.069 Y7.404 E0.11474
G1 X26.549 Y6.250 E0.11474
G1 X26.924 Y5.056 E0.11474
G1 X27.222 Y3.686 E0.12870
G1 X32.314 Y3.686 E0.46727
G1 X32.314 Y15.314 E1.06694
G1 X17.030 Y15.314 E1.40239
G1 X16.985 Y14.993 E0.02976
G1 E-3.20000 F3000.00000
G1 Z0.700 F9000.000
G1 X26.558 Y2.950 F9000.000
G1 Z0.300 F9000.000
G1 E3.20000 F3000.00000
G1 X33.050 Y2.950 E0.59564 F900.000
G1 X33.050 Y16.050 E1.20193
G1 X-33.050 Y16.050 E6.06471
G1 X-33.050 Y2.950 E1.20193
G1 X-24.199 Y2.950 E0.81205
G1 X-24.013 Y3.574 E0.05974
G1 X-23.617 Y4.504 E0.09279
G1 X-23.119 Y5.385 E0.09279
G1 X-22.526 Y6.205 E0.09283
G1 X-21.833 Y6.964 E0.09436
G1 X-21.087 Y7.621 E0.09118
G1 X-20.257 Y8.200 E0.09279
G1 X-18.665 Y9.064 E0.16627
G1 X-18.665 Y8.997 E0.00617
G1 X-17.458 Y9.336 E0.11507
G1 X-16.442 Y9.501 E0.09436
G1 X-15.450 Y9.551 E0.09118
G1 X-14.440 Y9.488 E0.09279
G1 X-13.444 Y9.314 E0.09279
G1 X-12.474 Y9.030 E0.09279
G1 X-11.541 Y8.639 E0.09279
G1 X-10.657 Y8.146 E0.09279
G1 X-9.835 Y7.558 E0.09279
G1 X-9.096 Y6.894 E0.09118
G1 X-8.411 Y6.126 E0.09436
G1 X-7.827 Y5.300 E0.09283
G1 X-7.339 Y4.414 E0.09279
G1 X-6.954 Y3.479 E0.09279
G1 X-6.675 Y2.507 E0.09279
G1 X-6.489 Y1.408 E0.10230
G1 X-6.449 Y0.497 E0.08359
G1 X-6.506 Y-0.513 E0.09288
G1 X-6.676 Y-1.514 E0.09312
G1 X-6.957 Y-2.489 E0.09312
G1 X-7.346 Y-3.427 E0.09312
G1 X-7.837 Y-4.315 E0.09312
G1 X-8.424 Y-5.143 E0.09312
G1 X-9.100 Y-5.900 E0.09312
G1 X-9.857 Y-6.576 E0.09312
G1 X-10.685 Y-7.164 E0.09316
G1 X-11.589 Y-7.661 E0.09470
G1 X-12.511 Y-8.043 E0.09150
G1 X-13.486 Y-8.324 E0.09312
G1 X-14.487 Y-8.494 E0.09312
G1 X-15.500 Y-8.551 E0.09312
G1 X-16.513 Y-8.494 E0.09312
G1 X-17.514 Y-8.324 E0.09312
G1 X-18.489 Y-8.043 E0.09312
G1 X-19.427 Y-7.654 E0.09312
G1 X-20.315 Y-7.163 E0.09312
G1 X-21.143 Y-6.576 E0.09312
G1 X-21.900 Y-5.900 E0.09312
G1 X-22.576 Y-5.143 E0.09312
G1 X-23.163 Y-4.315 E0.09312
G1 X-23.654 Y-3.427 E0.09312
G1 X-24.043 Y-2.489 E0.09312
G1 X-24.324 Y-1.514 E0.09312
G1 X-24.494 Y-0.513 E0.09312
G1 X-24.525 Y0.050 E0.05177
G1 X-33.050 Y0.050 E0.78213
G1 X-33.050 Y-16.050 E1.47718
G1 X33.050 Y-16.050 E6.06471
G1 X33.050 Y0.050 E1.47718
G1 X26.558 Y0.050 E0.59564
G1 X26.463 Y-0.711 E0.07033
G1 X26.212 Y-1.868 E0.10865
G1 X25.857 Y-2.998 E0.10865
G1 X25.403 Y-4.091 E0.10865
G1 X24.851 Y-5.139 E0.10865
G1 X24.208 Y-6.134 E0.10868
G1 X23.465 Y-7.080 E0.11043
G1 X22.667 Y-7.929 E0.10684
G1 X21.782 Y-8.715 E0.10865
G1 X20.829 Y-9.419 E0.10865
G1 X19.817 Y-10.034 E0.10865
G1 X18.754 Y-10.555 E0.10865
G1 X17.648 Y-10.979 E0.10865
G1 X16.509 Y-11.302 E0.10865
G1 X15.345 Y-11.520 E0.10865
G1 X14.166 Y-11.634 E0.10865
G1 X13.002 Y-11.640 E0.10684
G1 X11.802 Y-11.540 E0.11043
G1 X10.636 Y-11.335 E0.10868
G1 X9.493 Y-11.025 E0.10865
G1 X8.381 Y-10.613 E0.10876
G1 X7.287 Y-10.089 E0.11126
G1 X6.293 Y-9.500 E0.10603
G1 X5.362 Y-8.829 E0.10533
G1 X4.441 Y-8.032 E0.11173
G1 X3.619 Y-7.178 E0.10878
G1 X2.878 Y-6.254 E0.10865
G1 X2.224 Y-5.267 E0.10865
G1 X1.661 Y-4.225 E0.10865
G1 X1.194 Y-3.137 E0.10865
G1 X0.827 Y-2.011 E0.10865
G1 X0.562 Y-0.856 E0.10865
G1 X0.403 Y0.317 E0.10865
G1 X0.350 Y1.500 E0.10865
G1 X0.403 Y2.683 E0.10865
G1 X0.562 Y3.856 E0.10865
G1 X0.827 Y5.011 E0.10865
G1 X1.194 Y6.137 E0.10865
G1 X1.661 Y7.225 E0.10865
G1 X2.215 Y8.249 E0.10684
G1 X2.878 Y9.253 E0.11043
G1 X3.619 Y10.178 E0.10868
G1 X4.440 Y11.031 E0.10865
G1 X5.334 Y11.808 E0.10865
G1 X6.295 Y12.501 E0.10868
G1 X7.331 Y13.113 E0.11043
G1 X8.382 Y13.614 E0.10684
G1 X9.493 Y14.025 E0.10865
G1 X10.636 Y14.335 E0.10865
G1 X11.802 Y14.540 E0.10865
G1 X12.982 Y14.640 E0.10865
G1 X14.166 Y14.634 E0.10865
G1 X15.345 Y14.520 E0.10865
G1 X16.509 Y14.302 E0.10865
G1 X17.648 Y13.979 E0.10865
G1 X18.754 Y13.555 E0.10865
G1 X19.817 Y13.034 E0.10865
G1 X20.829 Y12.419 E0.10865
G1 X21.782 Y11.715 E0.10865
G1 X22.652 Y10.942 E0.10684
G1 X23.478 Y10.066 E0.11045
G1 X24.219 Y9.117 E0.11045
G1 X24.851 Y8.139 E0.10684
G1 X25.403 Y7.091 E0.10865
G1 X25.857 Y5.998 E0.10865
G1 X26.212 Y4.868 E0.10865
G1 X26.463 Y3.711 E0.10865
G1 X26.551 Y3.010 E0.06482
G1 X26.896 Y3.164 F9000.000
G1 X31.865 Y4.487 F9000.000
G1 X31.513 Y4.135 E0.04624 F900.000
G1 X30.460 Y4.135 E0.09776
G1 X31.865 Y5.540 E0.18449
G1 X31.865 Y6.593 E0.09776
G1 X29.407 Y4.135 E0.32275
G1 X28.355 Y4.135 E0.09776
G1 X31.865 Y7.645 E0.46101
G1 X31.865 Y8.698 E0.09776
G1 X27.508 Y4.342 E0.57211
G1 X27.309 Y5.195 E0.08141
G1 X31.865 Y9.751 E0.59825
G1 X31.865 Y10.804 E0.09776
G1 X27.058 Y5.997 E0.63126
G1 X26.771 Y6.762 E0.07592
G1 X31.865 Y11.857 E0.66899
G1 X31.865 Y12.910 E0.09776
G1 X26.461 Y7.506 E0.70961
G1 X26.099 Y8.196 E0.07239
G1 X31.865 Y13.963 E0.75726
G1 X31.715 Y14.865 E0.08497
G1 X25.719 Y8.869 E0.78736
G1 X25.306 Y9.509 E0.07070
G1 X30.662 Y14.865 E0.70341
G1 X29.609 Y14.865 E0.09776
G1 X24.861 Y10.117 E0.62350
G1 X24.400 Y10.708 E0.06965
G1 X28.556 Y14.865 E0.54585
G1 X27.504 Y14.865 E0.09776
G1 X23.895 Y11.257 E0.47386
G1 X23.380 Y11.794 E0.06914
G1 X26.451 Y14.865 E0.40326
G1 X25.398 Y14.865 E0.09776
G1 X22.822 Y12.290 E0.33822
G1 X22.247 Y12.767 E0.06943
G1 X24.345 Y14.865 E0.27551
G1 X23.292 Y14.865 E0.09776
G1 X21.641 Y13.214 E0.21677
G1 X21.005 Y13.630 E0.07063
G1 X22.239 Y14.865 E0.16215
G1 X21.186 Y14.865 E0.09776
G1 X20.828 Y14.506 E0.04712
G1 X20.326 Y14.505 F9000.000
G1 X19.283 Y14.747 E0.09822 F600.000
G1 X18.313 Y14.927 E0.09051
G1 X16.638 Y15.171 F9000.000
G1 X15.435 Y15.283 E0.23152 F600.000
G1 X14.217 Y15.341 E0.23343
G1 X12.969 Y15.345 E0.23904
G1 X11.686 Y15.291 E0.24593
G1 X10.363 Y15.175 E0.25443
G1 X8.694 Y14.927 F9000.000
G1 X7.881 Y14.781 E0.07575 F600.000
G1 X6.681 Y14.510 E0.11286
G1 X-0.289 Y14.721 F9000.000
G1 X-0.686 Y14.973 E0.04315 F600.000
G1 X-1.055 Y15.148 E0.03750
G1 X-1.055 Y15.148 F9000.000
G1 X-1.295 Y15.261 E0.05084 F600.000
G1 X-1.539 Y15.345 E0.04936
G1 X-2.084 Y15.322 E0.10451
G1 X-2.614 Y15.238 E0.10278
G1 X1.977 Y14.865 F9000.000
G1 X1.302 Y14.189 E0.08822 F900.000
G1 X1.636 Y13.477 E0.07264
G1 X3.024 Y14.865 E0.18124
G1 X4.071 Y14.865 E0.09660
G1 X1.815 Y12.610 E0.29438
G1 X1.741 Y11.489 E0.10370
G1 X5.117 Y14.865 E0.44070
G1 X6.150 Y14.851 E0.09531
G1 X-5.640 Y3.062 E1.53893
G1 X-5.447 Y2.208 E0.08077
G1 X0.960 Y8.614 E0.83622
G1 X-0.464 Y9.284 F9000.000
G1 X-5.883 Y3.865 E0.70731 F900.000
G1 X-6.189 Y4.606 E0.07398
G1 X-1.606 Y9.188 E0.59814
G1 X-2.473 Y9.368 E0.08173
G1 X-6.539 Y5.302 E0.53075
G1 X-6.922 Y5.966 E0.07074
G1 X-3.183 Y9.705 E0.48804
G1 X-3.772 Y10.162 E0.06885
G1 X-7.355 Y6.579 E0.46768
G1 X-7.826 Y7.155 E0.06865
G1 X-4.253 Y10.728 E0.46651
G1 X-4.615 Y11.413 E0.07146
G1 X-8.322 Y7.705 E0.48393
G1 X-8.873 Y8.201 E0.06840
